!!!!SEGMENT: pl-kk--kk-i-382--028-005_fuhrer-robert--msza-na-4ry-glosy-benedictus.krn
!!!cenid: 18xx:1514
!!!COM: Führer, Robert
!!!COM-rismid: pe30001170
!!!CDT: 1807/06/02-1861/11/28
!!!CNT: Czech
!!!OPR: Msza na 4ry głosy
!!!OTL: Benedictus
!!!OMV: 005
!!!PDT:
!!!AGN: Sacred; Mass
!!!SMS-siglum: PL-Kk
!!!SMS-shelfmark: Kk.I.382
!!!SMS-shelfwork: 013-005 M
!!!SMS-variant:
!!!SMS-altvar:
!!!NIFC-rismid: 1001139162
!!!URL-scan: http://repozytorium.nifc.pl/skany/pl-kk-nut--i-382
!!!ONB-nifc: UWAGA: obsada: S (T 1), T 2, B 1, B 2; S (T 1): skan 0029-0030; T 2: skan 0101; B 1: skan 0177; B 2: skan 0249
!!!AIN: 2 empty 2 tenor
!!!key:
**kern	**text	**dynam	**kern	**text	**dynam	**kern	**text	**dynam	**kern	**text	**dynam
*part4	*part4	*part4	*part3	*part3	*part3	*part2	*part2	*part2	*part1	*part1	*part1
*staff4	*staff4	*	*staff3	*staff3	*	*staff2	*staff2	*	*staff1	*staff1	*
*Iempty	*	*	*Iempty	*	*	*Itenor	*	*	*Itenor	*	*
*I"Bas IIgi	*	*	*I"Bas I	*	*	*I"Tenor IIgi	*	*	*I"Soprano vel Tenore I.	*	*
*I'B 2	*	*	*I'B 1	*	*	*I'T 2	*	*	*I'S (T 1)	*	*
*clefF4	*	*	*clefF4	*	*	*clefG2	*	*	*clefG2	*	*
*	*	*	*	*	*	*Trd0c0	*	*	*Trd0c0	*	*
*k[b-]	*	*	*k[b-]	*	*	*k[b-]	*	*	*k[b-]	*	*
*F:	*	*	*F:	*	*	*F:	*	*	*F:	*	*
*M2/4	*	*	*M2/4	*	*	*M2/4	*	*	*M2/4	*	*
=1	=1	=1	=1	=1	=1	=1	=1	=1	=1	=1	=1
*^	*	*	*	*	*	*	*	*	*	*	*
*	*cue	*	*	*	*	*	*	*	*	*	*	*
!	!	!	!	!	!	!	!LO:TX:a:i:t=Andantino	!	!	!LO:TX:a:t=P:problem=błędny klucz; transpozycja o oktawę w dół	!	!
!LO:TX:a:t=P:problem=w źródle "Andantino" zapisane przed pierwszym taktem, na pięciolinii	!	!	!	!LO:TX:a:t=P:problem=w źródle ta adnotacja zapisana przed pierwszym taktem, na pięciolinii i częściowo na doklejonej karteczce	!	!	!LO:TX:a:t=P:problem=w źródle ta adnotacja zapisana przed pierwszym taktem, na pięciolinii	!	!	!LO:TX:a:t=P:problem=w źródle ta adnotacja zapisana przed pierwszym taktem, na pięciolinii	!	!
!LO:TX:a:i:t=Andantino	!	!	!	!LO:TX:a:i:t=Andantino	!	!	!LO:TX:a:t=P:problem=błędny klucz; transpozycja o oktawę w dół	!	!LO:DY:a	!LO:TX:a:i:t=Andantino	!	!
!	!	!	!	!	!	!	!	!	!LO:DY:rj	!	!	!
!	!	!	!	!	!	!	!	!	!LO:DY:a	!	!	!
!	!	!	!LO:DY:b	!	!	!	!	!	!	!	!	!
!LO:TX:a:t=P:problem=w źródle "Bass I" zapisane ołówkiem	!	!	!	!	!	!	!	!	!	!	!	!
!LO:TX:a:i:t=Bass I	!	!	!	!	!	!	!	!	!	!	!	!
!	!LO:TX:a:t=P:problem=w źródle ta nuta dopisana ołówkiem	!	!	!	!	!	!	!	!	!	!	!
2rF	4.F	.	p	4.F\	Be-	.	4a/	Be-	p	(>4cc\	Be-	.
.	.	.	.	.	.	.	8.f/	-ne-	.	8.a\)	.	.
!LO:TX:a:t=i.	!	!	!	!	!	!	!	!	!	!	!	!
!	!LO:TX:a:t=P:problem=w źródle ta nuta dopisana ołówkiem	!	!	!	!	!	!	!	!	!	!	!
.	8F	.	.	8F\	-ne-	.	.	.	.	.	.	.
.	.	.	.	.	.	.	16g/	.	.	16b-\	-ne-	.
*	*Xcue	*	*	*	*	*	*	*	*	*	*	*
*v	*v	*	*	*	*	*	*	*	*	*	*	*
=2	=2	=2	=2	=2	=2	=2	=2	=2	=2	=2	=2
2r	.	.	4F\	-di-	.	(<8.a/L	-di-	.	(>8.cc\L	-dic-	.
.	.	.	.	.	.	16b-/Jk)	.	.	16dd\Jk)	.	.
!LO:TX:a:t=i.	!	!	!	!	!	!	!	!	!	!	!
.	.	.	8F\	-ctus,	.	8a/	-ctus,	.	8cc\	-tus	.
.	.	.	8r	.	.	8r	.	.	8ff\	qui	.
=3	=3	=3	=3	=3	=3	=3	=3	=3	=3	=3	=3
4.C/	Be-	.	(>4G\	be-	.	4.b-\	be-	.	8ff\L	ve-	.
.	.	.	.	.	.	.	.	.	8ee\J	nit	.
.	.	.	8F\)	.	.	.	.	.	8dd\	be-	.
8C/	-ne-	.	8E\	-ne-	.	8b-\	-ne-	.	8cc\	-ne-	.
!	!	!	!LO:PB:g=original	!	!	!LO:LB:g=original	!	!	!LO:LB:g=original	!	!
=4	=4	=4	=4	=4	=4	=4	=4	=4	=4	=4	=4
4F\	-di-	.	4F\	-di-	.	4a/	-di-	.	(>8.cc\L	-dic-	.
.	.	.	.	.	.	.	.	.	16dd\Jk	.	.
8FF/	-ctus	.	8F\	-ctus	.	8a/	-ctus	.	8cc\)	-tus	.
8AA/	qui	.	8F\	qui	.	8dd\	qui	.	8r	.	.
=5	=5	=5	=5	=5	=5	=5	=5	=5	=5	=5	=5
4D\	ve-	.	4F\	ve-	.	(>8cc\L	ve-	.	2r	.	.
.	.	.	.	.	.	8b-\J)	.	.	.	.	.
!	!	!	!	!	!	!	!	!	!LO:TX:a:i:t=i.	!	!
8BB-/	-nit	.	8F\	-nit	.	8dd\	-nit	.	.	.	.
8AA/	in	.	8F#X\	in	.	8cc\	in	.	.	.	.
!LO:LB:g=original	!	!	!	!	!	!	!	!	!	!	!
=6	=6	=6	=6	=6	=6	=6	=6	=6	=6	=6	=6
4GG/	no-	.	4G\	no-	.	4b-\	no-	.	8r	.	.
.	.	.	.	.	.	.	.	.	8dd\	in	.
8GG/	-mi-	.	8D\	-mi-	.	8bn\	-mi-	.	8gg\	no-	.
8GG/	-ne	.	8G\	-ne	.	8b\	-ne	.	16ff\	-mi-	.
.	.	.	.	.	.	.	.	.	16ff\	-ne	.
=7	=7	=7	=7	=7	=7	=7	=7	=7	=7	=7	=7
!	!	!	!LO:TX:a:t=P:problem=w źródle łuk zapisany ołówkiem	!	!	!	!	!	!	!	!
4.C/	Do-	.	(>4G\	Do-	.	(>8cc\L	Do-	.	(>4ee\	Do-	.
.	.	.	.	.	.	8b-X\J	.	.	.	.	.
!	!	!	!LO:TX:a:t=P:problem=w źródle pod tą nutą pierwotnie sylaba "-mi-"; skreślona ołówkiem	!	!	!	!	!	!	!	!
.	.	.	8Fn\)	.	.	8a/)	.	.	8ff\)	.	.
!	!	!	!LO:TX:a:t=P:problem=w źródle pod tą nutą pierwotnie litera "n"; nad nutą ołówkiem dopisana sylaba "-mi-"	!	!	!	!	!	!	!	!
8C/	-mi-	.	8F\	-mi-	.	8a-X/	-mi-	.	8bn\	-mi-	.
=8	=8	=8	=8	=8	=8	=8	=8	=8	=8	=8	=8
*^	*	*	*	*	*	*	*	*	*	*	*
*	*cue	*	*	*	*	*	*	*	*	*	*	*
!LO:TX:a:t=P:problem=w źródle "Bass I" zapisane ołówkiem	!	!	!	!	!	!	!	!	!	!	!	!
!LO:TX:a:i:t=Bas I	!	!	!	!	!	!	!	!	!	!	!	!
!	!	!	!	!LO:TX:a:t=P:problem=w źródle pierwotnie 4E\; zmienione ołówkiem na 8e\	!	!	!	!	!	!	!	!
8C/	8ryy	-ni	.	8E\	-ni	.	8g/	-ni	.	4cc\	-ni	.
!	!LO:TX:a:t=P:problem=w źródle cue notes w kolejnych 3 taktach dopisane ołówkiem	!	!	!	!	!	!	!	!	!	!	!
8rD	8E/L	.	.	(>8E\L	be-	.	(<8g/L	be-	.	.	.	.
4rD	8F/J	.	.	8F\J)	.	.	8a/J)	.	.	8cc\	be-	.
.	8G/	.	.	8G\	-ne-	.	8b-/	-ne-	.	8cc\	-ne-	.
!	!	!	!	!LO:LB:g=original	!	!	!LO:PB:g=original	!	!	!LO:LB:g=original	!	!
=9	=9	=9	=9	=9	=9	=9	=9	=9	=9	=9	=9	=9
2rF	4F/	.	.	4F\	-di-	.	4a/	-di-	.	4cc\	-di-	.
!LO:TX:a:i:t=1.	!	!	!	!	!	!	!	!	!	!	!	!
.	8.F/	.	.	8.F\	-ctus	.	8.f/	-ctus	.	8.a/	-ctus	.
.	16F/	.	.	16F\	qui	.	16g/	qui	.	16b-/	qui	.
=10	=10	=10	=10	=10	=10	=10	=10	=10	=10	=10	=10	=10
4rD	4F/	.	.	4F\	ve-	.	(<8.a/L	ve-	.	(>8.cc\	ve-	.
.	.	.	.	.	.	.	16b-/Jk)	.	.	16dd\)	.	.
8rD	8F/	.	.	8F\	-nit	.	8a/	-nit	.	8cc\	-nit	.
8D\	8ryy	qui	.	8A\	qui	.	8a/	qui	.	8ff\	qui	.
*v	*v	*	*	*	*	*	*	*	*	*	*	*
=11	=11	=11	=11	=11	=11	=11	=11	=11	=11	=11	=11
4G\	ve-	.	4B-\	ve-	.	4cc#X\	ve-	.	(>8ff\L	ve-	.
.	.	.	.	.	.	.	.	.	8ee\J)	.	.
8F\	-nit	.	8A\	-nit	.	8dd\	-nit	.	8dd\	-nit	.
8E\	in	.	8G\	qui	.	8a/	qui	.	8cc#X\	qui	.
!LO:LB:g=original	!	!	!	!	!	!	!	!	!	!	!
=12	=12	=12	=12	=12	=12	=12	=12	=12	=12	=12	=12
4AA/	no-	.	4E\	ve-	.	(<8a/L	ve-	.	4cc#X^>\	ve-	.
.	.	.	.	.	.	8g/J)	.	.	.	.	.
8BB-/	-mi-	.	8D\	-nit	.	8f/	-nit	.	8dd\	-nit	.
8AA/	-ne	.	8D\	qui	.	8f#X/	qui	.	8ccn\	qui	.
=13	=13	=13	=13	=13	=13	=13	=13	=13	=13	=13	=13
4GG/	ve-	.	4D\	ve-	.	4g/	ve-	.	(>8cc\L	ve-	.
.	.	.	.	.	.	.	.	.	8bn\J)	.	.
!	!	!	!	!	!	!	!	!	!	!	!LO:HP:a
!	!	!	!	!	!	!	!	!	!LO:LB:g=original	!	!
8GG/	-nit	.	8G\	-nit	.	8bn/	nit	.	8dd\	-nit	<[
8GG/	in	.	8G\	in	.	8b/	in	.	8ff^>\	in	.
!	!	!	!LO:LB:g=original	!	!	!LO:LB:g=original	!	!	!	!	!
=14	=14	=14	=14	=14	=14	=14	=14	=14	=14	=14	=14
4C/	no-	.	4G\	no-	.	(>8cc\L	no-	.	4ee^>\	no-	.
.	.	.	.	.	.	8b-\J)	.	.	.	.	.
8D/	-mi-	.	8F\	-mi-	.	8a/	-mi-	.	8ff\	-mi-	.
8D/	-ne	.	8F\	-ne	.	8g#X/	-ne	.	8bn\	-ne	.
=15	=15	=15	=15	=15	=15	=15	=15	=15	=15	=15	=15
4.C/	Do-	.	(>8F\L	Do-	.	(<8a/L	Do-	.	4.cc\	Do-	.
.	.	.	16G\L	.	.	16b-/L	.	.	.	.	.
.	.	.	16F\JJ	.	.	16a/JJ)	.	.	.	.	.
.	.	.	8E\)	.	.	8gn/	-o-	.	.	.	.
!LO:TX:a:t=P:problem=w źródle "vi-" zapisane ołówkiem	!	!	!	!	!	!	!	!	!	!	!
!LO:TX:a:i:t=vi-	!	!	!LO:TX:a:i:t=vi	!	!	!	!	!	!	!	!
8C/	-mi-	.	8G\	-mi-	.	8b-/	-mi-	.	(>16dd\LL	mi-	.
.	.	.	.	.	.	.	.	.	16cc\JJ)	.	.
!	!	!	!	!	!	!	!	!	!LO:TX:a:t=P:problem=w źródle "vi" zapisane ołówkiem	!	!
!	!	!	!	!	!	!	!	!	!LO:TX:a:t=vi	!	!
=16	=16	=16	=16	=16	=16	=16	=16	=16	=16	=16	=16
*^	*	*	*	*	*	*	*	*	*	*	*
4FF/	8ryy	-ni.	.	4F\	-ni,	.	4a/	-ni,	.	4cc\	-ni	.
!	!	!	!	!	!	!	!LO:TX:a:t=P:problem=w źródle oba "vi" zapisane ołówkiem	!	!	!	!	!
!	!	!	!	!	!	!	!LO:TX:a:t=vi	!	!	!	!	!
!	!	!	!	!	!	!	!LO:TX:b:t=vi	!	!	!	!	!
!	!LO:TX:a:t=P:problem=w źródle "B I" zapisane ołówkiem	!	!	!	!	!	!	!	!	!	!	!
!	!LO:TX:a:i:t=B I	!	!	!	!	!	!	!	!	!	!	!
!	!LO:TX:a:t=P:problem=w źródle cue notes w tym takcie dopisane ołówkiem	!	!	!	!	!	!	!	!	!	!	!
.	8A\L	.	.	.	.	.	.	.	.	.	.	.
4rD	8.A\J	.	.	8.A\	be-	.	8.cc/	be-	.	4r	.	.
.	16F\	.	.	16F\	-ne-	.	16a/	-ne-	.	.	.	.
*v	*v	*	*	*	*	*	*	*	*	*	*	*
=17	=17	=17	=17	=17	=17	=17	=17	=17	=17	=17	=17
4.C/	Be-	.	(>8.E\L	-di-	.	(<8.g/L	-di-	.	2r	.	.
.	.	.	16F\Jk	.	.	16a/Jk)	.	.	.	.	.
!	!	!	!	!	!	!	!	!	!LO:TX:a:i:t=i.	!	!
.	.	.	8E\)	-ctus	.	8g/	-ctus	.	.	.	.
8E\	-ne-	.	8G\	qui	.	8cc/	qui	.	.	.	.
!LO:LB:g=original	!	!	!	!	!	!	!	!	!	!	!
=18	=18	=18	=18	=18	=18	=18	=18	=18	=18	=18	=18
!LO:TX:t=P:problem=mixed beam	!	!	!	!	!	!	!	!	!	!	!
(>8D/L	-di-	.	4G\	ve-	.	(>8bn\L	ve-	.	4r	.	.
8F\J)	.	.	.	.	.	8dd\J	.	.	.	.	.
8E\	-ctus	.	8G\	-nit	.	8cc\)	-nit	.	8r	.	.
!	!	!	!	!	!	!	!	!	!LO:TX:a:t=P:problem=pierwotnie w źródle 4ee\; poprawione ołówkiem na 8ee\	!	!
8C/	qui	.	8G\	qui	.	8cc\	qui	.	8ee\	qui	.
!	!	!	!LO:LB:g=original	!	!	!LO:LB:g=original	!	!	!	!	!
=19	=19	=19	=19	=19	=19	=19	=19	=19	=19	=19	=19
4C/	ve-	.	(>8E\L	ve-	.	4b-\	ve-	.	(>8gg\L	ve-	.
.	.	.	8F\J)	.	.	.	.	.	8ff\J)	.	.
8C/	-nit	.	8G\	-nit	.	8b-\	-nit	.	8ee\	-nit	.
8D/	qui	.	8G\	qui	.	8b-\	in	.	8dd\	qui	.
!	!	!	!	!	!	!	!	!	!LO:LB:g=original	!	!
=20	=20	=20	=20	=20	=20	=20	=20	=20	=20	=20	=20
4E\	ve-	.	4G\	ve-	.	4b-\	no-	.	(>8.dd^>\L	ve-	.
.	.	.	.	.	.	.	.	.	16cc\Jk)	.	.
8E\	-nit	.	8G\	-nit	.	8b-\	-mi-	.	8cc\	-nit	.
8C/	qui	.	8E\	qui	.	8b-\	-ne	.	8cc\	qui	.
=21	=21	=21	=21	=21	=21	=21	=21	=21	=21	=21	=21
4F\	ve-	.	4F\	ve-	.	4a/	ve-	.	4cc\	ve-	.
8E\	-nit	.	8G\	-nit	.	8a/	-nit	.	8cc#X\	-nit	.
8E\	in	.	8G\	in	.	8a/	in	.	8cc#\	in	.
=22	=22	=22	=22	=22	=22	=22	=22	=22	=22	=22	=22
4D/	no-	.	4F\	no-	.	4a/	no-	.	4dd\	no-	.
8C#X/	-mi-	.	8G\	-mi-	.	8a/	-mi-	.	8ee\	-mi-	.
8C#/	-ne	.	8G\	-ne	.	8a/	-ne	.	8ee\	-ne	.
!LO:LB:g=original	!	!	!	!	!	!	!	!	!	!	!
=23	=23	=23	=23	=23	=23	=23	=23	=23	=23	=23	=23
4D/	Do-	.	(>8F\	Do-	.	4a/	Do-	.	4.ff\	Do-	.
.	.	.	4D\	.	.	.	.	.	.	.	.
8.BB-/	.	.	.	.	.	8g#X/	.	.	.	.	.
.	.	.	16C#X/LL)	-mi-	.	8g#/	-mi-	.	(>16ee\LL	-mi-	.
16BB-/	-mi-	.	16D/JJ	.	.	.	.	.	16dd\JJ)	.	.
!	!	!	!LO:LB:g=original	!	!	!	!	!	!	!	!
=24	=24	=24	=24	=24	=24	=24	=24	=24	=24	=24	=24
4AA/	-ni	.	4E\	-ni,	.	4a/	-ni	.	4cc#X\	-ni,	.
8GGn/	be-	.	8E\	be-	.	8b-/	be-	.	8ccn\	be-	.
8C/	-ne-	.	8E\	-ne-	.	8b-/	-ne-	.	8cc\	-ne-	.
!	!	!	!	!	!	!LO:LB:g=original	!	!	!LO:LB:g=original	!	!
=25	=25	=25	=25	=25	=25	=25	=25	=25	=25	=25	=25
4FF/	-di-	.	4F\	-di-	.	4a/	-di-	.	4cc\	-dic-	.
!	!	!	!	!	!	!	!	!	!LO:N:vis=8	!	!
8F\	-ctus	.	8F\	-ctus	.	8.f/	-ctus	.	8.a/	-tus	.
8F\	qui	.	8F\	qui	.	.	.	.	.	.	.
.	.	.	.	.	.	16g/	qui	.	16b-/	qui	.
=26	=26	=26	=26	=26	=26	=26	=26	=26	=26	=26	=26
4F\	ve-	.	4F\	ve-	.	(<8.a/L	ve-	.	(>8.cc\	ve-	.
.	.	.	.	.	.	16b-/Jk)	.	.	16dd\)	.	.
8F\	-nit	.	8F\	-nit	.	8a/	-nit	.	8cc\	-nit	.
8D/	qui	.	8A\	in	.	8a/	in	.	8ff\	in	.
=27	=27	=27	=27	=27	=27	=27	=27	=27	=27	=27	=27
4G\	ve-	.	4B-\	no-	.	4cc#X\	no-	.	(>8ff\L	no-	.
.	.	.	.	.	.	.	.	.	8ee\J)	.	.
8F\	-nit	.	8A\	-mi-	.	8dd\	-mi-	.	8dd\	-mi-	.
8E\	in	.	8G\	-ne,	.	8a/	-ne	.	8cc#X\	-ne	.
!LO:LB:g=original	!	!	!	!	!	!	!	!	!	!	!
=28	=28	=28	=28	=28	=28	=28	=28	=28	=28	=28	=28
4AA/	ve-	.	4E\	ve-	.	(<8a/L	ve-	.	4cc#X\	ve-	.
.	.	.	.	.	.	8g/J)	.	.	.	.	.
8BB-/	-nit	.	8D/	-nit	.	8f/	-nit	.	8dd\	-nit	.
8AA/	qui	.	8D/	qui	.	8f#X/	qui	.	8ccn\	qui	.
!	!	!	!LO:LB:g=original	!	!	!	!	!	!	!	!
=29	=29	=29	=29	=29	=29	=29	=29	=29	=29	=29	=29
4GG/	ve-	.	4D\	ve-	.	4g/	ve-	.	(>8cc\L	ve-	.
.	.	.	.	.	.	.	.	.	8bn\J)	.	.
8GG/	-nit	.	8G\	-nit	.	8bn\	-nit	.	8dd\	-nit	.
!	!	!	!	!	!	!	!	!	!LO:TX:b:i:t=V. S.	!	!
8GG/	in	.	8G\	in	.	8b\	in	.	8ff\	in	.
!	!	!	!	!	!	!LO:LB:g=original	!	!	!LO:PB:g=original	!	!
=30	=30	=30	=30	=30	=30	=30	=30	=30	=30	=30	=30
8C/L	no-	.	4G\	no-	.	(>8cc\L	no-	.	4ee\	no-	.
8C#X/J	.	.	.	.	.	8b-\J)	.	.	.	.	.
8D/	-mi-	.	8F\	-mi-	.	8a/	-mi-	.	8ff\	-mi-	.
8D/	-ne	.	8F\	-ne	.	8g#X/	-ne	.	8bn\	-ne	.
=31	=31	=31	=31	=31	=31	=31	=31	=31	=31	=31	=31
4.Cn/	Do-	.	(>8F\L	Do-	.	(<8a/L	Do-	.	(>4.cc\	Do-	.
.	.	.	16G\L	.	.	16b-/L	.	.	.	.	.
.	.	.	16F\JJ	.	.	16a/JJ)	.	.	.	.	.
.	.	.	8E\)	.	.	8gn/	-o-	.	.	.	.
8C/	-mi-	.	8G\	-mi-	.	8b-/	-mi-	.	16dd\LL)	-mi-	.
.	.	.	.	.	.	.	.	.	16cc\JJ	.	.
!	!	!	!	!	!	!	!	!	!LO:TX:a:t=P:problem=w źródle "de" zapisane ołówkiem	!	!
!	!	!	!	!	!	!	!	!	!LO:TX:a:t=de	!	!
!	!	!	!LO:TX:a:i:t=de	!	!	!	!	!	!	!	!
=32	=32	=32	=32	=32	=32	=32	=32	=32	=32	=32	=32
!LO:TX:a:t=P:problem=w źródle "-de" zapisane ołówkiem	!	!	!	!	!	!	!	!	!	!	!
!LO:TX:a:i:t=-de	!	!	!	!	!	!	!	!	!	!	!
4FF/	-ni,	.	4F\	-ni.	.	4a/	-ni,	.	4cc\	-ni,	.
!	!	!	!	!	!	!LO:TX:a:t=P:problem=w źródle oba "de" zapisane ołówkiem	!	!	!	!	!
!	!	!	!	!	!	!LO:TX:a:t=de	!	!	!	!	!
!	!	!	!	!	!	!LO:TX:b:t=de	!	!	!	!	!
8r	.	.	8r	.	.	8r	.	.	8r	.	.
!	!	!	!	!	!	!	!	!	!	!	!LO:DY:rj
!	!	!LO:DY:rj	!	!	!LO:DY:rj	!	!	!	!	!	!
!	!	!LO:DY:a	!	!	!LO:DY:a	!	!	!	!	!	!LO:DY:a
8F\	o-	f	8F\	O	f	8f/	o-	.	8f/	o-	mf
!LO:LB:g=original	!	!	!	!	!	!	!	!	!	!	!
=33	=33	=33	=33	=33	=33	=33	=33	=33	=33	=33	=33
8.F\	-san-	.	8.F\	San-	.	8.a/	-san-	.	8.ee-X\	-san-	.
16F\	-na	.	16F\	-na	.	16a/	-na	.	16ee-\	-na	.
!	!	!	!	!	!	!LO:SIC:l:v:s=in	!	!	!	!	!
8F\	in	.	8F\	in	.	8b-/	i	.	8dd\	in	.
8F\	ex-	.	8F\	ex-	.	8a/	ec-	.	8cc\	ex-	.
!	!	!	!LO:LB:g=original	!	!	!	!	!	!	!	!
=34	=34	=34	=34	=34	=34	=34	=34	=34	=34	=34	=34
4BB-/	-cel-	.	4F\	-cel-	.	8a/L	-cel-	.	(>8cc#X\L	-cel-	.
.	.	.	.	.	.	8b-/J	.	.	8dd\J)	.	.
8BB-/	-sis	.	8F\	-sis,	.	8b-/	-sis,	.	8dd\	-sis,	.
!	!	!	!	!	!	!	!	!	!	!	!LO:DY:rj
!	!	!	!	!	!LO:DY:rj	!	!	!	!	!	!
!	!	!	!	!	!LO:DY:a	!	!	!	!	!	!LO:DY:a
8GG/	o-	.	8G\	o-	f	8b-/	o-	.	8dd\	o-	f
!	!	!	!	!	!	!LO:LB:g=original	!	!	!LO:LB:g=original	!	!
=35	=35	=35	=35	=35	=35	=35	=35	=35	=35	=35	=35
2C/	-san-	.	(>8G\L	-san-	.	(<8b-/L	-sa-	.	2ee\	-san-	.
.	.	.	16F#X\L	.	.	16a/L	.	.	.	.	.
.	.	.	16G\JJ	.	.	16b-/JJ)	.	.	.	.	.
.	.	.	8A\)	.	.	8cc\	.	.	.	.	.
.	.	.	8G\	.	.	8b-\	-an-	.	.	.	.
=36	=36	=36	=36	=36	=36	=36	=36	=36	=36	=36	=36
4Fn\	-na,	.	4Fn\	-na	.	4a/	-na	.	4ff\	-na,	.
!	!	!	!	!	!	!	!	!	!LO:TX:a:t=P:problem=w źródle "p" zapisane na pięciolinii	!	!
!	!	!	!	!	!	!	!	!	!	!	!LO:DY:rj
!	!	!	!	!	!	!	!	!	!	!	!LO:DY:a
8D/	in	.	8F\	in	.	8a/	in	.	8a/	in	p
8BBn/	ex-	.	8F\	ex-	.	8g#X/	ex-	.	8dd\	ex-	.
=37	=37	=37	=37	=37	=37	=37	=37	=37	=37	=37	=37
2C/	-cel-	.	(>8F\L	-cel-	.	4.gn/	-cel-	.	2cc\	-cel-	.
.	.	.	16E\L	.	.	.	.	.	.	.	.
.	.	.	16D\JJ	.	.	.	.	.	.	.	.
.	.	.	8E\L	.	.	.	.	.	.	.	.
.	.	.	8G\J)	.	.	8b-/	.	.	.	.	.
=38	=38	=38	=38	=38	=38	=38	=38	=38	=38	=38	=38
!	!	!	!LO:N:vis=1	!	!	!LO:N:vis=1	!	!	!LO:N:vis=1	!	!
2FF;>/	-sis.	.	2F;>\	-sis.	.	2a;>/	-sis.	.	2cc;>\	-sis.	.
==	==	==	==	==	==	==	==	==	==	==	==
*-	*-	*-	*-	*-	*-	*-	*-	*-	*-	*-	*-
!!!system-decoration: [(s1,s2,s3,s4)]
!!!RDF**kern: > = above
!!!RDF**kern: < = below
!!!EED: Antoni Szymański
!!!EEV: 2021-02-06
!!!ENC: Krzysztof Stępień
!!!END: 2021-01-29
